src/icons/folder-maven.svg

<?xml version="1.0" encoding="UTF-8" standalone="no"?>
<svg
   version="1.2"
   viewBox="0 0 16 16"
   width="16"
   height="16"
   id="svg1"
   sodipodi:docname="maven.svg"
   inkscape:version="1.4 (e7c3feb100, 2024-10-09)"
   xmlns:inkscape="http://www.inkscape.org/namespaces/inkscape"
   xmlns:sodipodi="http://sodipodi.sourceforge.net/DTD/sodipodi-0.dtd"
   xmlns="http://www.w3.org/2000/svg"
   xmlns:svg="http://www.w3.org/2000/svg">
  <defs
     id="defs1" />
  <sodipodi:namedview
     id="namedview1"
     pagecolor="#505050"
     bordercolor="#eeeeee"
     borderopacity="1"
     inkscape:showpageshadow="0"
     inkscape:pageopacity="0"
     inkscape:pagecheckerboard="0"
     inkscape:deskcolor="#505050"
     inkscape:zoom="37.75"
     inkscape:cx="7.986755"
     inkscape:cy="8"
     inkscape:window-width="1316"
     inkscape:window-height="744"
     inkscape:window-x="20"
     inkscape:window-y="20"
     inkscape:window-maximized="0"
     inkscape:current-layer="svg1" />
  <title
     id="title1">folder</title>
  <style
     id="style1">
		.s0 { fill: #8080a0 } 
		.s1 { fill: #f1667f } 
	</style>
  <g
     id="Layer 1">
    <path
       id="path1"
       class="s0"
       d="M 4.1992188,1 C 3.0992187,1 2.4996094,0.99921875 2.0996094,1.1992188 c -0.4,0.2 -0.7003906,0.5003906 -0.9003906,0.9003906 C 0.99921875,2.4996094 1,3.0992187 1,4.1992188 V 9 c 0,1.4 7.812e-4,2.099609 0.3007812,2.599609 0.2,0.5 0.5996094,0.89961 1.0996094,1.09961 C 2.9003906,12.999219 3.6,13 5,13 H 5.8261719 C 6.4175279,9.894958 7.875286,5.5609226 13.043214,3.9620499 12.92207,3.8779581 12.738267,3.3562442 12.599609,3.3007812 12.099609,3.0007813 11.4,3 10,3 H 8.3007812 8.0996094 C 8.0329427,3 7.9670573,2.9670573 7.9003906,2.9003906 L 7.8007812,2.8007812 7.1992188,2.1992188 c -0.5,-0.5 -0.6984375,-0.6988282 -0.8984376,-0.7988282 C 6.0341146,1.2670573 5.7666667,1.166276 5.5,1.0996094 5.3,0.99960938 5.0007813,1 4.3007812,1 Z m 9.7988282,5.6015625 -0.09766,0.097656 0.09766,0.048828 c -5.5e-5,-0.051702 1.37e-4,-0.096835 0,-0.1464844 z"
       sodipodi:nodetypes="sssssccscccscsscsscsscccc" />
    <path
       id="path2"
       fill-rule="evenodd"
       class="s1"
       d="m14.7 5c-6.1 0.4-7.2 5.9-7.7 8.8-0.1 0.4 0.1 0.6 0.4 0.6 0.3 0 0.5-0.3 0.5-0.6q0.6-1.8 2.3-2c1.7-0.2 3-1.7 3.6-2.9 0.1-0.2-0.1-0.5-0.2-0.6l-0.4-0.3 0.5-0.4c0.4-0.4 0.8-1 1.4-2.1 0.1-0.2 0-0.5-0.4-0.5z" />
  </g>
</svg>

<svg xmlns="http://www.w3.org/2000/svg" width="16" height="16" version="1.2"><path d="M4.2 1c-1.1 0-1.7 0-2.1.2q-.6.3-.9.9c-.2.4-.2 1-.2 2.1V9c0 1.4 0 2.1.3 2.6.2.5.6.9 1.1 1.1.5.3 1.2.3 2.6.3h.826c.592-3.105 2.05-7.44 7.217-9.038-.12-.084-.305-.606-.443-.661C12.1 3 11.4 3 10 3H8.1q-.1 0-.2-.1l-.1-.1-.6-.6c-.5-.5-.7-.7-.9-.8a4 4 0 0 0-.8-.3C5.3 1 5 1 4.3 1Zm9.798 5.602-.098.097.098.049z" style="fill:#8080a0"/><path fill-rule="evenodd" d="M14.7 5c-6.1.4-7.2 5.9-7.7 8.8-.1.4.1.6.4.6s.5-.3.5-.6q.6-1.8 2.3-2c1.7-.2 3-1.7 3.6-2.9.1-.2-.1-.5-.2-.6l-.4-.3.5-.4c.4-.4.8-1 1.4-2.1.1-.2 0-.5-.4-.5" style="fill:#f1667f"/></svg>
